svg/Frame.svg

<svg width="22" height="22" viewBox="0 0 22 22" fill="none" xmlns="http://www.w3.org/2000/svg">
<rect width="22" height="22" fill="#F5F5F5"/>
<g clip-path="url(#clip0_0_1)">
<rect width="1440" height="1024" transform="translate(-1256 -21.1212)" fill="url(#paint0_linear_0_1)"/>
<rect width="1440" height="1024" transform="translate(-1256 -21.1212)" fill="white"/>
<mask id="path-1-inside-1_0_1" fill="white">
<path d="M184 43L-1256 42.9999L-1256 -21.0001L184 -21L184 43Z"/>
</mask>
<path d="M184 43L-1256 42.9999L-1256 -21.0001L184 -21L184 43Z" fill="white"/>
<path d="M184 43L184 42L-1256 41.9999L-1256 42.9999L-1256 43.9999L184 44L184 43Z" fill="#F5F5F5" mask="url(#path-1-inside-1_0_1)"/>
<path d="M4.58398 17.4163V8.24967C4.58398 4.70584 7.45682 1.83301 11.0007 1.83301C14.5445 1.83301 17.4173 4.70584 17.4173 8.24967V17.4163M1.83398 17.4163H20.1673" stroke="#333333" stroke-width="1.5" stroke-linecap="round" stroke-linejoin="round"/>
<path d="M11.0007 20.167C12.2663 20.167 13.2923 19.141 13.2923 17.8753V17.417H8.70898V17.8753C8.70898 19.141 9.73501 20.167 11.0007 20.167Z" stroke="#333333" stroke-width="1.5" stroke-linecap="round" stroke-linejoin="round"/>
</g>
<defs>
<linearGradient id="paint0_linear_0_1" x1="19" y1="19.5" x2="1412.5" y2="1024" gradientUnits="userSpaceOnUse">
<stop stop-color="#2E7EEA"/>
<stop offset="1" stop-color="#013F92"/>
</linearGradient>
<clipPath id="clip0_0_1">
<rect width="1440" height="1024" fill="white" transform="translate(-1256 -21.1212)"/>
</clipPath>
</defs>
</svg>

<svg fill="none" viewBox="0 0 22 22"><path fill="#F5F5F5" d="M0 0h22v22H0z"/><g clipPath="url(#a)"><path fill="url(#b)" d="M0 0h1440v1024H0z" transform="translate(-1256 -21.121)"/><path fill="white" d="M-1256-21.121H184v1024h-1440z"/><mask id="c" fill="white"><path d="M184 43h-1440v-64H184z"/></mask><path fill="white" d="M184 43h-1440v-64H184z"/><path fill="#F5F5F5" d="M184 43v-1h-1440v2H184z" mask="url(#c)"/><path stroke="#333333" strokeLinecap="round" strokeLinejoin="round" strokeWidth="1.5" d="M4.584 17.416V8.25a6.417 6.417 0 0 1 12.833 0v9.166m-15.583 0h18.333M11 20.167a2.29 2.29 0 0 0 2.292-2.292v-.458H8.71v.458a2.29 2.29 0 0 0 2.292 2.292"/></g><defs><linearGradient id="b" x1="19" x2="1412.5" y1="19.5" y2="1024" gradientUnits="userSpaceOnUse"><stop stopColor="#2E7EEA"/><stop offset="1" stopColor="#013F92"/></linearGradient><clipPath id="a"><path fill="white" d="M-1256-21.121H184v1024h-1440z"/></clipPath></defs></svg>
